pages/zim/img/icon/phone-icon.svg

<svg width="14" height="14" viewBox="0 0 14 14" fill="none" xmlns="http://www.w3.org/2000/svg">
    <path d="M11.4041 8.92283C10.914 8.439 10.3022 8.439 9.8153 8.92283C9.44385 9.29116 9.0724 9.65949 8.70719 10.0341C8.6073 10.1371 8.52302 10.1589 8.40129 10.0902C8.16094 9.95914 7.90498 9.85301 7.67399 9.70943C6.5971 9.03208 5.695 8.1612 4.89592 7.18107C4.49949 6.69412 4.14677 6.17284 3.90018 5.58602C3.85024 5.4674 3.8596 5.38937 3.95636 5.2926C4.32782 4.93364 4.6899 4.56531 5.05511 4.19698C5.5639 3.68506 5.5639 3.08575 5.05199 2.57071C4.76169 2.2773 4.4714 1.99012 4.18111 1.69671C3.88145 1.39705 3.58491 1.09427 3.28213 0.797737C2.79207 0.320157 2.18027 0.320157 1.69332 0.800858C1.31875 1.16919 0.959787 1.54688 0.578972 1.90897C0.22625 2.24296 0.048328 2.65187 0.0108708 3.12945C-0.0484365 3.90668 0.141971 4.64022 0.410414 5.35503C0.959787 6.83459 1.79633 8.14871 2.8108 9.35359C4.18111 10.983 5.81674 12.2721 7.73018 13.2023C8.5917 13.6206 9.48443 13.9421 10.4552 13.9952C11.1232 14.0326 11.7038 13.8641 12.1689 13.3428C12.4872 12.9869 12.8462 12.6623 13.1833 12.3221C13.6828 11.8164 13.6859 11.2046 13.1896 10.7052C12.5965 10.109 12.0003 9.5159 11.4041 8.92283Z"
          fill="#313339"/>
</svg>

<svg width="14" height="14" fill="none" xmlns="http://www.w3.org/2000/svg"><path d="M11.404 8.923c-.49-.484-1.102-.484-1.589 0-.371.368-.743.736-1.108 1.111-.1.103-.184.125-.306.056-.24-.13-.496-.237-.727-.38-1.077-.679-1.979-1.55-2.778-2.53-.397-.487-.75-1.008-.996-1.595-.05-.119-.04-.197.056-.293.372-.36.734-.728 1.1-1.096.508-.512.508-1.111-.004-1.626-.29-.294-.58-.58-.87-.874-.3-.3-.597-.603-.9-.9C2.792.32 2.18.32 1.693.802 1.32 1.169.96 1.547.58 1.909a1.81 1.81 0 00-.568 1.22c-.06.778.131 1.511.4 2.226.549 1.48 1.385 2.794 2.4 3.999a14.854 14.854 0 004.92 3.848c.86.419 1.753.74 2.724.793.668.038 1.249-.13 1.714-.652.318-.356.677-.68 1.014-1.02.5-.507.503-1.118.007-1.618-.593-.596-1.19-1.19-1.786-1.782z" fill="#313339"/></svg>
